status/48/microphone-sensitivity-muted-symbolic.svg

<?xml version="1.0" encoding="UTF-8" standalone="no"?>
<svg
   xmlns:dc="http://purl.org/dc/elements/1.1/"
   xmlns:cc="http://creativecommons.org/ns#"
   xmlns:rdf="http://www.w3.org/1999/02/22-rdf-syntax-ns#"
   xmlns:svg="http://www.w3.org/2000/svg"
   xmlns="http://www.w3.org/2000/svg"
   id="svg2"
   height="48"
   width="48"
   version="1.1">
  <defs
     id="defs4" />
  <metadata
     id="metadata7">
    <rdf:RDF>
      <cc:Work
         rdf:about="">
        <dc:format>image/svg+xml</dc:format>
        <dc:type
           rdf:resource="http://purl.org/dc/dcmitype/StillImage" />
        <dc:title />
      </cc:Work>
    </rdf:RDF>
  </metadata>
  <path
     class="error"
     style="color:#bebebe;display:inline;overflow:visible;visibility:visible;fill:#d33636;fill-opacity:1;fill-rule:nonzero;stroke:none;stroke-width:1;marker:none;enable-background:accumulate"
     id="path2386-8-8-6"
     d="M 31.96272,32.195 35.125,29 37,30.875 33.7518,33.9841 37,37.125 35.125,39 31.98402,35.7519 28.875,39 27,37.125 30.23224,34 27,30.875 28.875,29 l 3.08772,3.195 z" />
  <path
     id="path3122-2-8-1"
     d="M 24 8.0507812 C 21.23001 8.0507812 19 10.248086 19 12.978516 L 19 26.123047 C 19 28.853467 21.23001 31.050781 24 31.050781 C 24.528309 31.050781 25.026609 30.949095 25.503906 30.800781 A 1.50015 1.50015 0 0 1 25.939453 29.814453 L 27.814453 27.939453 A 1.50015 1.50015 0 0 1 28.777344 27.505859 C 28.908178 27.064468 29 26.60725 29 26.123047 L 29 12.978516 C 29 10.248086 26.77 8.0507812 24 8.0507812 z M 13 19.050781 L 13 21.050781 L 15 21.050781 L 15 26.050781 C 15 30.345441 17.98788 33.892371 22 34.800781 L 22 38.050781 L 20 38.050781 L 20 40.050781 L 27.804688 40.050781 L 25.939453 38.185547 A 1.50015 1.50015 0 0 1 25.957031 36.046875 L 26 36.005859 L 26 34.800781 C 26.691468 34.644222 27.350133 34.403232 27.970703 34.099609 L 28.074219 34 L 26.580078 32.556641 C 25.781798 32.87182 24.912946 33.050781 24 33.050781 C 20.122 33.050781 17 29.928781 17 26.050781 L 17 19.050781 L 13 19.050781 z M 31 19.050781 L 31 21.050781 L 31 26.050781 C 31 26.936198 30.830537 27.778203 30.533203 28.556641 L 31.976562 30.050781 L 32.138672 29.886719 C 32.688604 28.725505 33 27.428214 33 26.050781 L 33 21.050781 L 35 21.050781 L 35 19.050781 L 33 19.050781 L 31 19.050781 z "
     style="color:#bebebe;clip-rule:nonzero;display:inline;overflow:visible;visibility:visible;opacity:0.4;isolation:auto;mix-blend-mode:normal;color-interpolation:sRGB;color-interpolation-filters:linearRGB;solid-color:#000000;solid-opacity:1;fill:#bebebe;fill-opacity:1;fill-rule:nonzero;stroke:none;stroke-width:1;stroke-linecap:butt;stroke-linejoin:miter;stroke-miterlimit:4;stroke-dasharray:none;stroke-dashoffset:0;stroke-opacity:1;marker:none;color-rendering:auto;image-rendering:auto;shape-rendering:auto;text-rendering:auto;enable-background:accumulate" />
</svg>

<?xml version="1.0" encoding="UTF-8" standalone="no"?>
<svg
   xmlns:dc="http://purl.org/dc/elements/1.1/"
   xmlns:cc="http://creativecommons.org/ns#"
   xmlns:rdf="http://www.w3.org/1999/02/22-rdf-syntax-ns#"
   xmlns:svg="http://www.w3.org/2000/svg"
   xmlns="http://www.w3.org/2000/svg"
   version="1.1"
   id="svg2"
   height="48"
   width="48">
  <metadata
     id="metadata22">
    <rdf:RDF>
      <cc:Work
         rdf:about="">
        <dc:format>image/svg+xml</dc:format>
        <dc:type
           rdf:resource="http://purl.org/dc/dcmitype/StillImage" />
      </cc:Work>
    </rdf:RDF>
  </metadata>
  <defs
     id="defs4" />
  <path
     id="path16"
     fill="#d33636"
     overflow="visible"
     color="#bebebe"
     class="error"
     style="marker:none"
     d="M31.963 32.195L35.125 29 37 30.875l-3.248 3.11L37 37.124 35.125 39l-3.141-3.248L28.875 39 27 37.125 30.232 34 27 30.875 28.875 29l3.088 3.195z" />
  <path
     id="path18"
     fill="#bebebe"
     opacity=".4"
     overflow="visible"
     color="#bebebe"
     d="M24 8.05c-2.77 0-5 2.198-5 4.929v13.144c0 2.73 2.23 4.928 5 4.928.528 0 1.027-.102 1.504-.25a1.5 1.5 0 0 1 .435-.987l1.875-1.875a1.5 1.5 0 0 1 .963-.433c.131-.442.223-.899.223-1.383V12.979c0-2.73-2.23-4.928-5-4.928zm-11 11v2h2v5c0 4.295 2.988 7.842 7 8.75v3.25h-2v2h7.805l-1.866-1.864a1.5 1.5 0 0 1 .018-2.14l.043-.04V34.8a9.015 9.015 0 0 0 1.97-.701l.104-.1-1.494-1.443a7.008 7.008 0 0 1-2.58.494c-3.878 0-7-3.122-7-7v-7h-4zm18 0v7a7 7 0 0 1-.467 2.507l1.444 1.494.162-.164A8.93 8.93 0 0 0 33 26.05v-5h2v-2h-4z"
     style="isolation:auto;mix-blend-mode:normal;marker:none" />
</svg>
